X: 1105
T: Hüseynî Sazsemâîsi
C: Neyzen Raşid  Efendi
O: Turkey
F: http://compmusic.upf.edu/node/140
N: huseyni--sazsemaisi--aksaksemai----neyzen_rasid_efendi
N: makam= huseyni
N: form= sazsemaisi
N: usul= aksaksemai = 10/8
M: 10/8
L: 1/16
K: C _2/4B ^3/4f  
Q: 1/4=132
%%MIDI tuningsystem comma53
A4 e=fed2eed c2d2 e2z2  | defg fed4ed efga g2f2  | 
w:  1. HANE  |   | 
gafg efd3ba2 gfe4c'2  | b2a2 g2=f2 e2de/f/ edcd c2B2  | 
w:   |   | 
A3B cde2 dcBA BcA4z2  | A4 e=fed2eed c2d2 e2z2  | 
w:   |  1. HANE  | 
defg fed4ed efga g2f2  | gafg efd3ba2 gfe4c'2  | 
w:   |   | 
b2a2 g2=f2 e2de/f/ edcd c2B2  | A3B cde2 dcBA BcA4z2  | 
w:   |   | 
d2e2 e2e=f edef gfef edcd  | c4 d2e3g=fe dfe4g2  | 
w:  TESLİM  |   | 
=fed2 e2c3ded ecB2 A2B2  | c3d BAG4AB cAB4G2  | 
w:   |   | 
ABcd eddc2dcB BAA4z2  | d2e2 e2e=f edef gfef edcd  | 
w:   |  TESLİM  | 
c4 d2e3g=fe dfe4g2  | =fed2 e2c3ded ecB2 A2B2  | 
w:   |   | 
c3d BAG4AB cAB4G2  | ABcd eddc2dcB BAA4z2  | 
w:   |   | 
A3G g/f/e/f/e3gfa gfe4z2  | efga g=fe3ddc2Bc3G(3dcd  | 
w:  2. HANE  |   | 
e3g fae3g=f/e/f/g/ fed^c d2z2  | cd/=f/ed (3cBAB3cBG ABc2 d2e2  | 
w:   |   | 
=fgef edc3BBA BcA4z2  | A3G g/f/e/f/e3gfa gfe4z2  | 
w:   |  2. HANE  | 
efga g=fe3ddc2Bc3G(3dcd  | e3g fae3g=f/e/f/g/ fed^c d2z2  | 
w:   |   | 
cd/=f/ed (3cBAB3cBG ABc2 d2e2  | =fgef edc3BBA BcA4z2  | 
w:   |   | 
d2e2 e2e=f edef gfef edcd  | c4 d2e3g=fe dfe4g2  | 
w:  TESLİM  |   | 
=fed2 e2c3ded ecB2 A2B2  | c3d BAG4AB cAB4G2  | 
w:   |   | 
ABcd eddc2dcB BAA4z2  | d2e2 e2e=f edef gfef edcd  | 
w:   |  TESLİM  | 
c4 d2e3g=fe dfe4g2  | =fed2 e2c3ded ecB2 A2B2  | 
w:   |   | 
c3d BAG4AB cAB4G2  | ABcd eddc2dcB BAA4z2  | 
w:   |   | 
A4 c'ba2 f2ge fga4z2  | c'3b d'c'c'b2c'b/a/b/c'/ baag f2z2  | 
w:  3. HANE  |   | 
g_7/8aga =f2ga/b/ aggf fefe fge_3/4d  | \
w:   | 
c4 _3/4d2de dccB ABcd c2B2  | 
w:   | 
A3G =fe_3/4dc2BBA BcA4z2  | A4 c'ba2 f2ge fga4z2  | 
w:   |  3. HANE  | 
c'3b d'c'c'b2c'b/a/b/c'/ baag f2z2  | \
w:   | 
g_7/8aga =f2ga/b/ aggf fefe fge_3/4d  | 
w:   | 
c4 _3/4d2de dccB ABcd c2B2  | A3G =fe_3/4dc2BBA BcA4z2  | 
w:   |   | 
d2e2 e2e=f edef gfef edcd  | c4 d2e3g=fe dfe4g2  | 
w:  TESLİM  |   | 
=fed2 e2c3ded ecB2 A2B2  | c3d BAG4AB cAB4G2  | 
w:   |   | 
ABcd eddc2dcB BAA4z2  | d2e2 e2e=f edef gfef edcd  | 
w:   |  TESLİM  | 
c4 d2e3g=fe dfe4g2  | =fed2 e2c3ded ecB2 A2B2  | 
w:   |   | 
c3d BAG4AB cAB4G2  | ABcd eddc2dcB BAA4z2  | 
w:   |   | 
z12  | A4a2e4d2  | edc2d2e4z2  | e2=f2g2efe2d2  | \
w:  |  4. HANE  |   |   | 
edc2B2c4G2  | 
w:   | 
A4a2e4d2  | edc2d2e4z2  | e2=f2g2efe2d2  | \
w:   |   |   | 
edc2B2c4g2  | 
w:   | 
e=fg2g2g2f2g2  | _aba2g2=fed2e2  | =fef2g2e4d2  | 
w:   |   |   | 
edc2B2c4g2  | e=fg2g2g2f2g2  | _aba2g2=fed2e2  | 
w:   |   |   | 
=fef2g2e4d2  | d2c2B2A2G4  | AGF2G2A4d2  | \
w:   |   |   | 
cdc2d2e4g2  | 
w:   | 
f2g2a2e4d2  | edc2d2c4B2  | AGF2G2A4d2  | \
w:   |   |   | 
cdc2d2e4g2  | 
w:   | 
f2g2a2e4d2  | B2c2d2A4z2  | z20  | d2e2 e2e=f edef gfef edcd  | 
w:   |   |  |  TESLİM  | 
c4 d2e3g=fe dfe4g2  | =fed2 e2c3ded ecB2 A2B2  | 
w:   |   | 
c3d BAG4AB cAB4G2  | ABcd eddc2dcB BAA4z2  | 
w:   |   | 
d2e2 e2e=f edef gfef edcd  | c4 d2e3g=fe dfe4g2  | 
w:  TESLİM  |   | 
=fed2 e2c3ded ecB2 A2B2  | c3d BAG4AB cAB4G2  | 
w:   |   | 
ABcd eddc2dcB BAA4z2  | |


